X: 41707
T: Vallafield
R: jig
M: 6/8
K: Cmajor
|:G|c2 e c2 e|ecA A2 A|Bcd dBG|Bcd dBG|
c2 e c2 e|ecA A2 A|Bcd dBG|c3 c2:|
|:d|cBA GAB|dBA B2 G|cBA GAB|cBA GAB|
dBA B2 G|dBA B2 G|cBA GAB|c3 c2:|

